X:1
T:Far Side Bank of Jordan
C:Terry Smith
M:4/4
L:1/8
Q:1/4=338
K:G
[d/2B/2G,/2-]G,2z[d2-B2-D2-][d/2-B/2-D/2] [d-B-][dBD,-]|D,2- D,/2-[d/2-B/2-D/2-D,/2][d3-B3D3] [e/2-d/2c/2-G,/2-][e3/2-c3/2-G,3/2-]|[e-cG,-][e/2G,/2-][d/2-G,/2-] [d/2-B/2-D/2-G,/2][d2-B2D2-][d/2D/2-]D/2-[B/2-D/2F,/2-] [B/2-G/2-F,/2][B3/2-G3/2-]|[B-G][d3B3-E,3-] [B/2E,/2]z/2[d3-B3-D,3-]|
[d/2-B/2D,/2-][d/2D,/2][c3-A3] c/2-[cAA,,-]A,,2-A,,/2|z/2B3z/2 D,/2-[A/2-D,/2-][A3-F3-D,3-]|[A3/2-F3/2-D,3/2][A3-F3-][A3-F3-D3-][A/2-F/2-D/2-]|[A/2-F/2-D/2A,/2-][A2-F2A,2-][A-A,][A/2-D,/2-] [d/2-A/2F/2-D,/2-][d/2F/2D,/2-]D,2z/2[d/2-F/2-]|
[d3-A3-F3-][d/2-A/2-F/2-][d/2A/2-F/2-A,/2-A,,/2-] [A/2F/2A,/2-A,,/2-][A,2-A,,2-][A,/2-A,,/2]A,/2[d/2-A/2-F/2-]|[d3/2A3/2-F3/2-][A-F]A/2-[A/2-D/2-D,/2-][e/2-A/2D/2-D,/2-] [e2-D2-D,2-] [e/2D/2-D,/2-][d/2-D/2-D,/2-][d-A-D-D,-]|[d/2-A/2-D/2D,/2][d3/2A3/2] z/2E,/2-[d-AE,-] [d2-E,2-] [d/2E,/2-][c/2-F,/2-E,/2][c-A-G-F,-]|[c/2-A/2G/2F,/2]c3/2 [B4-G,4-] [B-G-G,][B-G]|
B2- [B3-D,3-][B/2-D,/2-][B/2-G/2-D,/2] [B2-G2]|B-[B4-G,4-][B3-G3-G,3-]|[B/2-G/2-G,/2-][B/2-G/2B,/2-G,/2-][B3-B,3-G,3] [B/2-G/2-D/2-B,/2][B2-G2-D2-][B/2-G/2D/2]B/2-[d/2-B/2-]|[d/2B/2G,/2-]G,3/2 z3/2[d3B3D3]z/2[B/2-D,/2-][d/2B/2D,/2-]|
D,2 z/2D/2-[d3-B3-D3-] [d/2-B/2D/2][e/2-d/2G,/2-][e-B-G,-]|[e3/2-B3/2G,3/2-][eG,][d3-B3D3]d/2- [d/2B/2-G/2-D,/2-][B3/2-G3/2-D,3/2-]|[BGD,-]D,/2z/2 [d2-B2-D2-] [d/2-B/2-D/2][d-B-][d3/2-B3/2D,3/2-][dD,-]|D,[c-A-D] [c3-A3-][c/2A/2A,,/2-]A,,2-A,,/2|
A,/2-[B2-A,2-][B/2A,/2]z/2D,/2- [A/2-D,/2-][A3-F3-D,3-][A/2-F/2-D/2-D,/2-]|[A-F-D-D,][A2-F2-D2][A/2-F/2-][A3/2F3/2A,3/2-]A,2-[D/2-A,/2][d/2-A/2F/2-D/2-]|[d/2F/2D/2-]D/2-[d/2A/2F/2-D/2]F/2 z/2[dAFD,-]D,3[d/2-F/2-D/2-][d-A-F-D-]|[d2-A2-F2-D2] [d/2-A/2-F/2-][d3/2A3/2F3/2D,3/2-] D,2 d/2-[d3/2-c3/2-D3/2-]|
[d-c-D][d/2c/2]z/2 [f2-d2c2-D,2-] [f/2-c/2D,/2-][f-D,-][f/2D/2-D,/2-] [d2-c2-D2-D,2-]|[d-cD-D,-][f/2-d/2-c/2-D/2-D,/2-][f/2-d/2-c/2-D/2F,/2-D,/2-] [f-d-c-F,-D,][f/2-d/2-c/2F,/2-][f3/2-d3/2-F,3/2][a/2-f/2d/2-][a2d2-c2-D2-][d/2-c/2-D/2-]|[d/2-c/2D/2]d/2-[g/2-d/2G,/2-][g3-G,3][g/2-D/2-][g3/2-d3/2B3/2D3/2]g3/2-|g-[g3-D,3-] [g/2-D/2-D,/2][g3/2-d3/2-B3/2-D3/2] [g2-d2-B2-]|
[g-dBG,-][g3-G,3-] [g/2-d/2-B/2-D/2-G,/2][g/2-d/2-B/2-D/2][g2-d2-B2-][g/2-d/2-B/2-][g/2-d/2-B/2-D,/2-]|[g2-d2-B2D,2-] [g-d-D,][g/2-d/2D/2-][gD-]D/2-[d-B-D] [d/2-B/2][d3/2-G,3/2-]|[dG,-]G,3/2-[d-B-G,][d2-B2-][d/2-B/2] [d/2D,/2-][dBD,-]D,/2-|D,z [d2-B2-] [d/2-B/2]d3/2- [e/2-d/2G,/2-][e3/2-B3/2G,3/2-]|
[e-G,]e/2-[e/2D/2-] [d-BD-][d3/2-D3/2]d[B-G-F,][B-G]B/2-|B-[d3/2-B3/2-G3/2-E,3/2][d-B-G][d/2B/2-] B/2z/2[d2-B2D,2-][d-D,-]|[d/2D,/2-][c/2-A/2-D,/2][c2-A2-][c/2-A/2]c/2 z/2[c3/2-A3/2A,,3/2-] [c/2A,,/2-]A,,3/2-|[B-G-A,,][B2-G2]B/2z/2 [A3-D,3-][A/2-D,/2-][A/2-F/2-D,/2-]|
[A3/2-F3/2-D,3/2][A2-F2-][A-FD-][A2D2-]D-[d/2-A/2-F/2-D/2]|[d2-A2-F2-] [d/2A/2F/2]z/2[d/2-D,/2-][d/2c/2-A/2-F/2-D,/2-] [c/2-A/2F/2D,/2-][c/2D,/2-]D,2-[d/2-c/2-A/2-F/2-D,/2][d/2-c/2-A/2-F/2-]|[d3-c3-A3-F3-][dcAFD-] D2- D/2-[d/2-F/2-D/2-][d-c-A-F-D-]|[d/2c/2-A/2-F/2-D/2][c/2A/2-F/2]A/2z[e2-A2-D2-D,2-][e/2-A/2D/2-D,/2-][e-DD,-] [e/2d/2-D,/2-][d-A-D,][d/2-A/2-]|
[d3/2A3/2]E,/2- [d2-A2E,2-] [d3/2E,3/2][c/2-F,/2-] [c-A-F,][c/2-A/2]c/2-|c-[c/2G,/2-][B3/2-G3/2G,3/2-][B2-G,2-][B/2-G/2-G,/2][B2-G2-][B/2-G/2-]|[B/2-G/2]B/2-[B3-D,3-] [B/2-D,/2][B3-G3-][B/2-G/2]|[B4-G,4-] [B4-G4-G,4-]|
[B/2-G/2B,/2-G,/2-][B-B,-G,][B2-B,2-][B-D-B,][B2-D2-][B/2-D/2][dB-G,-]|[B/2G,/2-]G,z[d2-B2-D2-][d/2-B/2-D/2][d/2B/2]z/2 D,/2-[dBD,-]D,/2-|D,3/2D/2- [d2-B2D2-] [d-D]d/2-[e/2-d/2-G,/2-] [e/2-d/2B/2-G,/2-][e3/2-B3/2G,3/2-]|[e3/2-G,3/2-][e/2d/2-B/2-G,/2-] [d/2-B/2G,/2-][d2-G,2-][d/2G,/2-]G,/2-[B/2-B,/2-G,/2] [B2-G2B,2-]|
[B/2B,/2-]B,/2[d/2-G/2-D/2-][d3/2-B3/2-G3/2D3/2-][d/2B/2-D/2-][B/2-D/2] B/2z/2[d3B3-D3-D,3-]|[B/2D/2D,/2-]D,/2-[c/2-A/2-D,/2][c3/2-A3/2]c/2z[c3/2-A3/2A,3/2-A,,3/2-] [c/2A,/2-A,,/2-][A,3/2-A,,3/2]|[B3/2-A,3/2]B3/2z/2D,/2- [A4-F4-D,4-]|[A/2-F/2-D,/2][A-F-A,][A2-F2-][A2-F2F,2-][A3/2F,3/2-][d/2-D/2-F,/2][d/2-A/2-F/2-D/2-]|
[d2A2F2D2-] D/2[d/2-F/2-][d/2-A/2-F/2D,/2-][d/2A/2D,/2-] D,2- D,/2-[d/2-c/2-D/2-D,/2][d-c-D-]|[d2-c2-D2] [d3/2-c3/2F,3/2-][d/2F,/2-] F,2 [d2-c2-A,2-]|[d-cA,-][d-A,-] [f/2-d/2-c/2-D/2-A,/2D,/2-][f3/2-d3/2c3/2D3/2-D,3/2-] [f3/2D3/2-D,3/2-][d3/2-c3/2-D3/2D,3/2-][d-cD,-]|[d-D,-][f/2-d/2-c/2-D,/2-][f3/2-d3/2-c3/2A,3/2-D,3/2-][f/2-d/2-A,/2-D,/2][f-d-A,][a/2-f/2d/2-][a3/2d3/2-c3/2-D3/2-][d-cD-][d/2-D/2-]|
[d/2-D/2][g/2-d/2G,/2-][g3-G,3] [g/2-D/2-][g2-d2-B2-D2-][g/2-d/2-B/2-D/2][g-d-B-]|[g3/2-d3/2-B3/2D,3/2-][g/2-d/2D,/2-] [g2-D,2] [g2-d2-B2-D2] [g3/2-d3/2-B3/2-][g/2-d/2-B/2-G,/2-]|[g/2-d/2-B/2G,/2-][g/2d/2-G,/2-][d/2G,/2-]G,3/2z/2[B3-G3-D3-][B/2-G/2-D/2][B/2-G/2-][B/2-G/2D,/2-]|[B2-D,2-] [B/2D,/2-]D,/2[c2-A2D2-][d/2-c/2B/2-D/2][d-B-][d-BG,-][d/2-G,/2-]|
[d/2G,/2-]G,2[d3B3D3]z/2 [dBD,-]D,-|D,z/2[d3-B3D3]d-[e/2-d/2c/2-G,/2-] [e2-c2-G,2-]|[e/2-c/2G,/2-][e/2-G,/2][e/2d/2-][d2-B2-D2-][d/2-B/2D/2-] [d-D][g-dBD,-] [g/2D,/2-]D,3/2|z/2[a3-d3D3-][a/2D/2] z/2[b3-g3-d3-G,3][b/2-g/2-d/2-]|
[b2-g2-d2-D2] [b2-g2-d2-] [b3-g3-d3-D,3-][b/2-g/2-d/2-D,/2][b/2-g/2-d/2-D/2-]|[b2-g2-d2D2-] [b/2-g/2D/2-][b/2D/2]z/2[g/2-d/2-G,/2-] [g2-d2-B2-G,2] [g-d-B-][g-d-B-D-]|[g/2-d/2-B/2D/2-][g-dD-][gD-][d/2-D/2-][b-=f-dDD,-] [b/2=f/2D,/2-]D,3/2 z/2[b3/2-=f3/2-d3/2-D3/2-]|[b=f-dD]=f- [=f/2e/2-C/2-][a2-e2-c2-C2-][a/2-e/2c/2C/2-][a/2-C/2]a/2- [a/2g/2-e/2-c/2-G/2-][g3/2-e3/2-c3/2-G3/2-]|
[g/2-e/2c/2G/2-][g/2-G/2-][g-ecG] [g/2G,/2-]G,2-G,/2[g2-e2-c2G2-][g/2e/2-G/2][a/2-e/2-c/2-]|[a/2-e/2-c/2-][a2-e2-c2C2-][a-eC-][a-C-][a/2g/2-e/2-c/2-G/2-C/2-][g/2-e/2-c/2-G/2-C/2][g/2-e/2-c/2G/2-] [g/2-e/2G/2-][g/2-G/2-][g-e-c-G-]|[g/2-e/2-c/2-G/2-][g/2-e/2-c/2-G/2B,/2-][g-ecB,] g3/2z/2 [e3/2-c3/2-A,3/2][e-c]e3/2|[d4-G,4] [d-B-G-D][d-BG] d3/2-[d/2-D,/2-]|
[d3-D,3][d4-B4-G4-][d/2-B/2-G/2G,/2-][d/2-B/2G,/2-]|[d2-G,2-] [d/2-G,/2-][d3-B3-G,3-][d/2-B/2-G,/2-] [d/2B/2-B,/2-G,/2-][B/2B,/2-G,/2-][B,-G,-]|[B,2-G,2] [g/2-B,/2][g/2-d/2-B/2-D/2][g-d-B] [g2d2] [^f/2-c/2-D,/2-][f/2d/2-c/2D/2-C/2-D,/2-][d/2D/2C/2D,/2-]D,/2-|D,2- [f2-d2-c2-D,2] [fdc]z/2F,/2- [f2-d2-c2F,2-D,2-]|
[f-d-F,-D,][f/2-d/2-F,/2][g/2-f/2d/2-c/2-A,/2-] [g-d-c-A,-][a/2-g/2d/2-c/2-A,/2-][a3/2-d3/2-c3/2-A,3/2][a/2-d/2-c/2-][a/2-d/2-c/2D/2-D,/2-] [a/2d/2D/2-D,/2-][D3/2-D,3/2-]|[D-D,-][a3/2-d3/2-c3/2-D3/2D,3/2-][a-d-cD,-][a/2-d/2-D,/2] [a/2-d/2-][a/2g/2-d/2-c/2-E,/2-][g/2-d/2-c/2E,/2-D,/2][g3/2-d3/2E,3/2-][g/2-E,/2]g/2|[a/2-c/2-F,/2-][a/2-c/2-D/2-F,/2][a/2-c/2-D/2][a/2-c/2] az [b-g-dE-E,-][b2-g2-E2-E,2-][bg-e-E-E,-]|[g/2e/2E/2E,/2-]E,/2[g/2-e/2-][c'3/2-g3/2-e3/2-][c'/2-b/2-g/2-e/2-][c'/2b/2-g/2-e/2-E/2-E,/2-] [b-g-eE-E,-][b3/2-g3/2E3/2-E,3/2-][b/2E/2E,/2-][a-e-E,-]|
[a/2-e/2-E,/2][a2-e2]a/2[g-e-EE,-] [g3/2-e3/2E,3/2-][g3/2-E,3/2-][g-e-E-E,-]|[g3/2-e3/2E3/2E,3/2-][g-E,-][a/2-g/2-e/2-E,/2-][a-g-e-EE,] [a/2-g/2-e/2][a3/2-g3/2] [b-ag-e-][b-g-e]|[b-g]b/2[c'geC-C,-][C3C,3-][c'2-g2-e2-C,2][c'/2-g/2-e/2-]|[c'/2-g/2-e/2][c'/2g/2-][g/2-C/2-C,/2][c'3/2-g3/2-e3/2C3/2-][c'/2-g/2-C/2][c'3/2-g3/2-][c'/2-g/2-C/2-][c'2-g2-e2-C2][c'/2g/2-e/2-]|
[g-e-][b/2-g/2-e/2G,/2-][b2-g2-G,2-][b/2-g/2-G,/2-] [b/2-g/2-d/2-G,/2-][b/2a/2-g/2d/2-G,/2-][a2-d2G,2-][a-G,-]|[a/2g/2-B,/2-G,/2-][g3/2-d3/2B,3/2-G,3/2-] [g/2-B,/2-G,/2][g-B,][a/2-g/2D/2-] [a/2-d/2-D/2][a2-d2]a[b/2-D/2-D,/2-]|[b/2D/2-D,/2-][D2-D,2-][D/2D,/2-][a2-c2-D,2][a-c] a/2[g3/2-A,3/2-D,3/2-]|[g/2A,/2-D,/2-][A,3/2D,3/2-] D,/2[f-dc-D-][f2-c2D2]f/2 [g2-G,2-]|
[g2-G,2] [g3/2-d3/2-B3/2D3/2-][g-d-D][g3/2-d3/2B3/2] [g2-D,2-]|[g3/2-D,3/2-][g/2-d/2-B/2-D/2-D,/2] [g3/2-d3/2-B3/2-D3/2][g3/2-d3/2-B3/2-][g2-d2-B2G,2-][g-d-G,-]|[g-d-G,-][g2-d2-B2-D2-G,2-][g/2-d/2-B/2-D/2G,/2-][g3/2-d3/2-B3/2-G,3/2-][g/2-d/2-B/2-B,/2-G,/2][g2-d2-B2-B,2][g/2-d/2-B/2]|[g-d-][gdD-] D3/2[d-B-][d-BG,-][d/2G,/2-] G,3/2z/2|
z/2[d2-B2-D2-][d/2-B/2D/2]d/2z/2 [d/2B/2-D,/2-][B/2D,/2-]D,2-D,/2[d/2-D/2-]|[d3-B3-D3-][d/2-B/2D/2][e/2-d/2c/2-G,/2-] [e2-c2G,2-] [eG,-][d/2-B/2-D/2-G,/2][d/2-B/2D/2-]|[dD-][B/2-D/2-][B-G-D][B/2-G/2-][B3/2-G3/2-F,3/2][B-G]B-[B/2-E,/2-][d-B-E,-]|[d2B2E,2] z/2[d3/2B3/2D,3/2-] D,2- [c/2-D,/2][c3/2-A3/2-]|
[cA-]A/2z/2 [c3/2A3/2A,,3/2-]A,,zA/2- [B3/2-A3/2]B/2-|B/2z[A2-D,2-][A/2D,/2-] D,-[A3-F3-D,3]|[A-F-][A/2-F/2-D/2-][A3/2-F3/2D3/2-D,3/2-][A3/2-D3/2-D,3/2-][A/2-F/2-D/2A,/2-D,/2][A3/2-F3/2A,3/2-][A/2-A,/2-][d/2-A/2-F/2-A,/2-][d/2-c/2-A/2-F/2-A,/2]|[d/2-c/2-A/2-F/2-][d/2c/2-A/2-F/2-D/2-D,/2-][c/2A/2F/2D/2-D,/2-][D2-D,2-][D/2D,/2-] [d/2-F/2-D,/2][d3-c3-A3-F3-][d/2-c/2-A/2-F/2-]|
[d/2c/2A/2-F/2A,/2-A,,/2-][A/2A,/2-A,,/2-][A,2-A,,2]A,/2-[d/2-F/2-A,/2] [d/2-A/2-F/2-][d-cA-F-][d/2A/2-F/2] Az/2A/2-|[e3/2-A3/2D3/2-D,3/2-][e2-D2-D,2-][e/2d/2-A/2-D/2-D,/2-] [d/2-A/2-D/2D,/2-][d-A-D,][d/2A/2] z[d-A-E,-]|[d/2-A/2E,/2-][d3/2-E,3/2-] [d/2F,/2-E,/2][c/2-A/2-F,/2-][c/2-A/2-D/2-F,/2][c-AD-][c-D]c/2- [c/2G,/2-][B3/2-G,3/2-]|[B2-G,2-] [B/2-G,/2][B3/2-G3/2-D3/2] [B-G]B3/2-[B3/2-D,3/2-]|
[B2-D,2-] [B/2-G/2-D/2-D,/2][B2-G2-D2-][B/2-G/2D/2-][B/2-D/2][B2-G,2-][B/2-G,/2-]|[B3/2-G,3/2-][B4-G4-G,4-][B-GB,-G,-][B/2-B,/2-G,/2][B-B,-]|[B-B,-][BD-B,-] [D-B,-][d/2-D/2-B,/2-][d/2-B/2-A/2-D/2B,/2] [d/2-B/2-A/2][d/2-B/2-][d-BG,-] [d/2G,/2-]G,3/2-|G,/2[d2-B2-D2][d2-B2-][d/2-B/2D,/2-][d/2D,/2-]D,2-D,/2-|
[d/2-B/2-D/2-D,/2][d2-B2D2]d-[e/2-d/2G,/2-] [e2-B2G,2-] [e-G,-][e/2d/2-G,/2-][d/2-B/2-D/2-G,/2]|[d-BD-][d3/2D3/2-]D/2-[B/2-D/2-F,/2-][B/2-G/2-D/2F,/2] [B2-G2-] [B/2-G/2]B/2-[d-B-E,-]|[d/2-B/2-E,/2][d-B]d/2 z/2D,/2-[d3-B3D,3-] [d/2-D,/2-][d/2c/2-A/2-D,/2][c-A-]|[c2-A2-] [c/2-A/2-][c3/2A3/2-A,,3/2-] [A/2A,,/2-]A,,3/2 B2-|
B/2z3/2 [A2-F2-D,2-] [A/2-F/2D,/2-][A3/2-D,3/2-] [A2-F2-D,2-]|[A3/2-F3/2-D,3/2-][A3/2-F3/2A,3/2-D,3/2-][AA,-D,-] [A,-D,][d-c-A-F-D-A,] [dc-A-F-D][cAF]|z/2D,/2-[d/2-c/2-A/2F/2-D,/2-][d/2c/2F/2D,/2-] D,2- D,/2-[d/2-F/2-D,/2-][d2-c2-A2-F2-D,2][d/2-c/2-A/2-F/2][d/2c/2-A/2]|c/2A,3-A,/2- [D/2-A,/2-][d/2-c/2A/2-F/2-D/2-A,/2-][d/2-A/2F/2D/2-A,/2][d/2D/2-] D/2zc/2-|
[f2-d2-c2D,2-] [f/2-d/2D,/2-][f-D,-][f/2d/2-D,/2-] [d3-c3-D,3-][d/2-c/2-D,/2-][f/2-d/2-c/2-D/2-D,/2-]|[f2-d2-c2D2D,2-] [f-d-D,-][a/2-f/2-d/2-D,/2][a3/2-f3/2-d3/2-D3/2-][a/2f/2-d/2-c/2-D/2-][f/2-d/2-c/2D/2-] [fdD][g-G,-]|[g2-G,2-] [g/2-G,/2][g/2-D/2-][g-d-B-D] [g-d-B][g/2-d/2]g-[g3/2-D,3/2-]|[g2-D,2] [g2-d2-B2-D2] [g3/2-d3/2-B3/2-][g3/2-d3/2-B3/2G,3/2-][g/2d/2G,/2-]G,/2-|
G,3/2[B3-G3D3-][B/2D/2-]D/2[B2-G2D,2-][B/2-D,/2-]|[B/2-D,/2]B/2[A/2-D/2-][c3/2-A3/2-D3/2-][d/2-c/2B/2-A/2D/2][d3/2-B3/2-][d-BG,-] [dG,-]G,-|G,[d/2-B/2-][d2-B2-D2-][d/2B/2D/2] z/2[B/2-D,/2-][d/2B/2D,/2-]D,2z/2|[d2-B2-D2-] [d/2-B/2-D/2][d/2-B/2]d/2-[e/2-d/2c/2-G,/2-] [e3-c3G,3][e/2d/2-][d/2-B/2-D/2-]|
[d2-B2D2-] [d/2-D/2]d/2-[g3/2-d3/2B3/2-D,3/2-][g/2-B/2D,/2-][g3/2D,3/2][a3/2-d3/2-D3/2-]|[a3/2-d3/2D3/2-][a/2D/2] G,/2-[b3-g3-G,3-][b/2-g/2-G,/2] [b2-g2-d2-D2]|[b2-g2-d2-] [b/2-g/2-d/2D,/2-][b-gD,-][b2-D,2][b3/2-g3/2-d3/2D3/2-][b-gD-]|[b/2-D/2]b/2-[b/2G,/2-][g3-d3-B3-G,3][g/2-d/2-B/2-][g/2-d/2-B/2D/2-][g2-d2-D2-][g/2-d/2-D/2-]|
[gd-D][b-=f-dD,-] [b/2=f/2D,/2-]D,3/2 z/2[b-=f-d-D][b=f-d]=f3/2-|[a/2-=f/2e/2-c/2-C/2-C,/2-][a3/2-e3/2-c3/2C3/2-C,3/2-] [a/2-e/2C/2-C,/2-][a-C-C,-][a/2g/2-C/2-C,/2-] [g/2-e/2-c/2-C/2C,/2][g2-e2-c2][g/2e/2]z/2[e/2-c/2-G,/2-G,,/2-]|[g/2-e/2c/2G,/2-G,,/2-][g/2G,/2-G,,/2-][G,3/2-G,,3/2]G,/2-[g-e-c-G,] [g-e-c][g/2-e/2-][a/2-g/2e/2-c/2-] [a-e-c-][a/2-e/2-c/2-C/2-][a/2-e/2-c/2-C/2-C,/2-]|[a/2-e/2-c/2C/2-C,/2-][a/2-e/2C/2-C,/2-][aC-C,-] [C/2-C,/2-][g/2-c/2-C/2-C,/2-][g/2e/2-c/2-C/2-C,/2-][e/2-c/2-C/2C,/2-] [e/2-c/2-C,/2][e3/2-c3/2-] [e/2-c/2-B,/2-B,,/2-][g/2-e/2-c/2B,/2-B,,/2-][g/2-e/2B,/2B,,/2]g/2-|
g/2z3/2 [e-c-A,A,,][e3/2-c3/2]e[G,/2-G,,/2-] [d2-G,2-G,,2-]|[d-G,-G,,][d-G,] [d2-B2-G2] [d/2-B/2]d-[d2-G,2-][d/2-G,/2-]|[d-G,-][d-B-G-G,] [d2-B2-G2] [d/2-B/2]d/2-[d3-D,3-]|[d/2-D,/2-][d/2-B/2-G/2-D,/2][d-B-G] [d2-B2-] [d/2-B/2-A,/2G,/2-][dBG,-G,,-][G,2-G,,2-][B/2-G,/2-G,,/2]|
[g/2-d/2-B/2-G,/2][g3/2-d3/2-B3/2] [g3/2d3/2-][^f/2-d/2-c/2-] [f/2-d/2c/2D/2-D,/2-][f/2D/2-D,/2-][D2D,2-]D,/2-[f/2-d/2-c/2-D,/2-]|[f-d-c-D,][f3/2d3/2c3/2]z/2[d/2-c/2-F,/2-D,/2-][f2-d2-c2F,2-D,2-][f-d-F,D,-][g/2-f/2d/2-D,/2][gd-c-A,]|[d/2-c/2-][a2-d2-c2-][a-dcD-D,-][a/2D/2-D,/2-] [D2-D,2-] [D/2-D,/2-][a-d-c-DD,-][a/2-d/2-c/2-D,/2-]|[a/2-d/2-c/2-D,/2][a-d-c][a/2-d/2-] [a/2g/2-d/2-c/2-E,/2-][g/2-d/2-c/2E,/2-][g/2-d/2E,/2-][g3/2E,3/2-]E,/2[a/2-F,/2-] [a-c-F,][a/2-c/2]a/2-|
a/2z[b2-g2-E2-E,2-][b/2g/2-E/2-E,/2-] [g3/2-E3/2E,3/2-][c'/2-g/2-E,/2] [c'/2-g/2]c'/2-[c'/2-g/2-][c'/2-b/2-g/2-]|[c'b-g-][b/2-g/2-][b3/2g3/2-E3/2-E,3/2-][g3/2-E3/2E,3/2-][g/2E,/2-]E,/2-[a/2-E,/2] [a/2-g/2E/2-][a3/2-E3/2]|a3/2-[a/2g/2-E/2-E,/2-] [g3-e3-E3-E,3-][g/2-e/2-B/2-E/2E,/2-][g-e-B-E,][g3/2-e3/2-B3/2]|[g-e-][a/2-g/2e/2-E/2-E,/2-][a-eE-E,-][a/2-E/2E,/2-][a3/2E,3/2][b-e-E][b/2-e/2] b2-|
[b/2-g/2-][c'/2-b/2g/2e/2-C/2-C,/2-][c'/2e/2C/2-C,/2-][C2-C,2-][C/2-C,/2-] [c'/2-g/2-e/2-C/2C,/2-][c'3/2-g3/2-e3/2-C,3/2] [c'/2-g/2-e/2][c'/2g/2-]g/2G,/2-|[c'-g-eG,-][c'-gG,-] [c'-G,-][c'/2-C/2-G,/2][c'-g-e-C][c'/2-g/2-e/2][c'2-g2-][c'/2b/2-g/2-d/2-G,/2-][b/2-g/2-d/2-G,/2-]|[b-g-dG,-][b3/2-g3/2G,3/2-][b/2a/2-d/2-G,/2][a/2-g/2d/2-][a/2-d/2-] [a/2g/2-d/2-][g2-d2-][g-dD-D,-][g/2-D/2-D,/2-]|[gD-D,-][D-D,-] [a/2-g/2-d/2-D/2D,/2-][a/2-g/2-d/2-D,/2][a/2-g/2d/2-][a2d2-][b-fdD-D,-][b/2D/2-D,/2-][D-D,-]|
[DD,-][a-f-c-D,] [a3/2-f3/2-c3/2][a/2f/2] z/2[g/2-D/2-D,/2-][g/2B/2D/2-D,/2-][D2-D,2-][D/2-D,/2]|D/2-[f2-D2-][f/2-D/2]f G,/2-[g2-d2G,2-][g3/2-G,3/2-]|[g-d-B-G,][g-d-B] [g/2-d/2]g-[g/2-D,/2-] [g3-D3-D,3][g-d-B-D]|[g3-d3-B3-][g/2-d/2-B/2-G,/2-][g/2-d/2-B/2G/2-G,/2-] [gdG-G,-][G3/2-G,3/2-][g/2-G/2-G,/2-][g-d-B-GG,-]|
[g/2-d/2-B/2-G,/2][g/2-d/2-B/2][g-d] g/2-[g/2-A,/2-][a/2-g/2A,/2-][a3-A,3][b/2-a/2B,/2-][b/2-B,/2]b/2|z/2[c'3/2-g3/2-e3/2-] [c'-g-eC-][c'/2g/2C/2-]C2-[c'/2-g/2-C/2] [c'-g-e-G][c'-g-e-]|[c'-g-e][c'/2-g/2-][c'/2-g/2G,/2-] [c'/2G,/2-]G,3-[c'-g-e-G,][c'-g-e][c'/2-g/2-]|[c'/2-g/2]c'/2-[c'b-g-d-G-G,-] [b3/2-g3/2d3/2G3/2-G,3/2-][b-GG,-][b/2-G,/2-][b/2a/2-G,/2]a/2- [a/2-d/2-][a/2g/2-d/2-][g-d-]|
[g/2-d/2-][g2-d2D2-D,2-][g3/2-D3/2-D,3/2-] [a/2-g/2D/2-D,/2-][a/2-d/2-D/2D,/2][a2-d2-][a/2d/2]b/2-|[b2-f2-d2D2-D,2-] [b/2-f/2D/2-D,/2-][bD-D,-][a/2-d/2-D/2D,/2-] [a/2-f/2-d/2-D,/2][a2f2-d2-][f/2d/2-][d/2-E,/2-][g/2-d/2-E,/2-]|[g/2-d/2E,/2-][g/2E,/2-]E,3/2z/2[f/2-d/2-][f3/2-d3/2D3/2-][f-D] f/2-[f/2G,/2-][g-G,-]|[g2-G,2] [g/2-D/2-][g/2-d/2-B/2-D/2][g-d-B] [g2-d2] [g/2-e/2-C,/2-][g-e-cC,-][g/2-e/2-C,/2-]|
[g3/2-e3/2-C,3/2][g/2-e/2C/2-] [g3/2-c3/2-A3/2C3/2-][g/2-c/2-C/2] [g/2-c/2-][g/2-d/2-c/2B/2-][g/2-d/2-B/2-][g3/2-d3/2-B3/2-G,3/2][g/2-d/2-B/2][g/2-d/2-]|[g3/2-d3/2][g-B-D,][g/2-B/2]g2-[g/2-G,/2-][g3/2-d3/2-B3/2-G,3/2][g-d-B-]|[g4d4-B4-] [d/2B/2]
